X: 1
T: Reel of Mullinavat, The
M: 4/4
L: 1/8
R: reel
K: Amix
|:ef| (3gfe fd edBA | GBAF GFED | GE E2 G3A | Be e2 (3Bcd ef |
(3gfe fd edBA | GBAF GFED | GE E2 G3A | Bgfg e3 :||
|:f| gdBd g3b | afde fa a2 | gB B2 g3B | afdf e3f |
gdBd g3b | afde fa a2 | (3bag af gfed | Bgfg e3 :||
